X: 6
T:Constant Billy, CJS
M:6/8
L:1/8
S:CJS
A:Bidford
P:A(AB2)4
K:F
P:A
C|F2c AGA|B2G GEC|A2F D2F|CDE  F2:|
P:B
z|B2c dBG|A2B cAF|B2c dBG|GA=B c2(3C/D/E/|
F2c AGA|B2G GEC|A2F D2F|CDE  F2||

